packages/sources/icons/src/vitamix/add-line.svg

<svg width="16" height="16" viewBox="0 0 16 16" xmlns="http://www.w3.org/2000/svg"><path d="M7.33331 7.33331V3.33331H8.66665V7.33331H12.6666V8.66665H8.66665V12.6666H7.33331V8.66665H3.33331V7.33331H7.33331Z"/></svg>

<svg width="16" height="16" xmlns="http://www.w3.org/2000/svg"><path d="M7.333 7.333v-4h1.334v4h4v1.334h-4v4H7.333v-4h-4V7.333h4Z"/></svg>
